X: 21057
T: June McCormack's
R: jig
M: 6/8
K: Dmajor
A|:d2A d2A|e2A e2A|~f3 efg|fed edc|
d2A d2A|e2A e2A|~g3 fag|fdc d2A:|
|:~a3 fdA|~a3 fdA|~a3 ecA|~a3 ecA|
~a3 fdB|~a3 fdB|~g3 fag|1 fdc d2A:|2 fdc d2B||
|:~A3 D{F}ED|AFA D{F}ED|~G3 D{F}ED|GFG D{F}ED|
~A3 D{F}ED|AFA D{F}ED|~g3 fag|1 fdc d2B:|2 fdc d2A||

